X: 13998
T: Frank Marchand's
R: jig
M: 6/8
K: Dminor
D2 A GA(F|F2)A GFE|D2 A GA(F|F)F/E/D CDE|
D2 A GA(F|F2)A GFE|DdD cDA|GFE DCA,:|
|:G,3 G,A,B,|D2(G G)FE|D2(d d)cA|G2 A GFE|
DC/B,/A, G,2 G,|A,B,C D2(G|G)FE DdD|cDA GFE|[M:3/28]DC/B,/A,:|

